X: 11004
T: FRENCH MARCH
%R: march
B: W. Hamilton "Universal Tune-Book" Vol. 1 Glasgow 1844 p.100 #4 (and p.101 #1)
S: http://imslp.org/wiki/Hamilton's_Universal_Tune-Book_(Various)
Z: 2016 John Chambers <jc:trillian.mit.edu>
N: Both strains have final repeat but no initial repeat; fixed.
M: C
L: 1/8
K: G
% - - - - - - - - - - - - - - - - - - - - - - - - -
D>G |\
B2B>B B2c>A | e2d>d d2 (3(Bcd) |\
cz (3(ABc) Bz (3(GAB) | (3(ABA) (3(GFE) D>E (3FGA |\
B2B>B B2c>A | e2d>d d2 (3(bag) |\
f2 (3(agf) e2 (3(gfe) | d2 (3([d'd][d'd][d'd]) [d'2d2] :|
|: !p!d^d |\
e2"_cres. ..."e>e e>fg>a | !f!b2b>b "dim."bagf |\
!p!f>ee>e e>"_cres."fg>a | !f!b2b>b b2=d>d |\
d>^cc>c "_>"a>=cc>c | c>BB>B "_>"e>AB>c |\
"_>"d>GA>B "_>"c>DE>F | G2(3([gG][gG][gG]) [g2G2] :|
% - - - - - - - - - - - - - - - - - - - - - - - - -

% (Continued from previous page)

%%sep 1 1 500
%%sep 1 1 500

